app/img/icons/ic--dinner.svg

<svg xmlns="http://www.w3.org/2000/svg" preserveAspectRatio="xMidYMid" width="29.844" height="29.875" viewBox="0 0 29.844 29.875"><defs><style>.cls-1{fill:#fff;fill-rule:evenodd}</style></defs><path d="M27.669 26.919c0 .797-.278 1.524-.723 2.055-.471.565-1.127.908-1.866.908-.732 0-1.396-.343-1.866-.908a3.251 3.251 0 0 1-.732-2.055l.017-.085.563-9.008-.017-.052v-.034c0-.617.219-1.165.572-1.576.202-.257.462-.445.748-.573v-4.239c-1.059-.189-1.993-.788-2.707-1.662-.832-1.027-1.353-2.431-1.353-3.99 0-1.549.521-2.962 1.353-3.99.857-1.062 2.068-1.721 3.422-1.721 1.362 0 2.556.659 3.429 1.721l.025.051c.824 1.028 1.321 2.415 1.321 3.939 0 1.541-.522 2.963-1.346 3.99-.723.874-1.664 1.473-2.706 1.662v4.239c.286.128.538.316.748.573.344.411.563.959.563 1.576l-.009.086.564 9.059v.034zM1.441 15.436h2.858l.631-.505V7.259c0-1.798-1.194-3.999-1.959-5.207-.622 1.13-1.53 2.963-1.53 3.948v9.436zm3.556 1.251V28.1c0 .48-.176.926-.496 1.251l-.017.009a1.745 1.745 0 0 1-1.228.522H1.769c-.488 0-.917-.206-1.245-.522v-.009A1.827 1.827 0 0 1 .012 28.1V6C.012 4.125 2.323.34 2.323.323A.716.716 0 0 1 3.307.1a.485.485 0 0 1 .185.189H3.5c0 .017 2.859 3.827 2.859 6.97v8.014a.696.696 0 0 1-.328.617l-1.034.797zm-3.556.505V28.1c0 .086.034.172.092.232a.3.3 0 0 0 .236.094h1.487a.356.356 0 0 0 .236-.094.38.38 0 0 0 .092-.232V17.08c-.033-.025-.058-.051-.084-.077a.217.217 0 0 0-.117-.086.223.223 0 0 0-.127-.034H1.752a.294.294 0 0 0-.219.103.28.28 0 0 0-.092.206zM15.782 1.744c0-.411.311-.736.706-.736a.73.73 0 0 1 .723.736v6.593c0 .548-.235 1.062-.596 1.439h-.009c-.362.36-.857.6-1.413.6h-.933c.009.051.018.085.018.128v5.087c.294.128.546.316.756.573.362.411.563.959.563 1.576v.086l.555 9.059v.034c0 .797-.278 1.524-.723 2.055-.471.565-1.127.908-1.866.908-.732 0-1.395-.343-1.866-.908a3.2 3.2 0 0 1-.723-2.055l.008-.085.563-9.008v-.086h-.016c0-.617.218-1.165.571-1.576.202-.257.471-.445.748-.573v-5.087c0-.043.009-.077.017-.128h-.933c-.546 0-1.043-.24-1.412-.6a2.074 2.074 0 0 1-.589-1.439V1.744c0-.411.311-.736.706-.736a.73.73 0 0 1 .723.736v6.593c0 .155.051.309.169.412a.58.58 0 0 0 .353.171V1.744c0-.411.311-.736.706-.736a.73.73 0 0 1 .723.736v7.193h.513V1.744c0-.411.327-.736.714-.736.403 0 .706.325.706.736V8.92a.679.679 0 0 0 .362-.154v-.017a.577.577 0 0 0 .176-.412V1.744zm11.635.89c-.606-.744-1.438-1.198-2.337-1.198-.891 0-1.724.454-2.329 1.198-.639.771-1.026 1.867-1.026 3.066 0 1.216.387 2.295 1.026 3.083.605.719 1.438 1.199 2.329 1.199.899 0 1.731-.48 2.337-1.199.621-.788 1.025-1.867 1.025-3.083 0-1.181-.386-2.252-.992-3.031l-.033-.035zM14.353 28.032a1.71 1.71 0 0 0 .387-1.113l-.555-9.034v-.145a.982.982 0 0 0-.218-.642c-.11-.129-.236-.206-.388-.206h-.016a.468.468 0 0 0-.387.206c-.142.153-.218.385-.218.642v.154l-.564 9.025c0 .446.16.839.379 1.113.21.257.487.394.79.394a.997.997 0 0 0 .79-.394zm-1.395-10.24v.042-.042zm12.912 10.24a1.76 1.76 0 0 0 .386-1.113l-.562-9.034v-.145c0-.257-.076-.489-.21-.642-.11-.129-.236-.206-.396-.206h-.025c-.143 0-.269.077-.378.206-.135.153-.21.385-.21.642v.154l-.564 9.025c0 .446.143.839.37 1.113.219.257.496.394.799.394a.997.997 0 0 0 .79-.394z" class="cls-1"/></svg>

<svg xmlns="http://www.w3.org/2000/svg" xmlns:xlink="http://www.w3.org/1999/xlink" preserveAspectRatio="xMidYMid" width="29.844" height="29.875" viewBox="0 0 29.844 29.875">
  <defs>
    <style>
      .cls-1 {
        fill: #fff;
        fill-rule: evenodd;
      }
    </style>
  </defs>
  <path d="M27.669,26.919 C27.669,27.716 27.391,28.443 26.946,28.974 C26.475,29.539 25.819,29.882 25.080,29.882 C24.348,29.882 23.684,29.539 23.214,28.974 C22.776,28.443 22.482,27.716 22.482,26.919 L22.499,26.834 L23.062,17.826 L23.045,17.774 L23.045,17.740 C23.045,17.123 23.264,16.575 23.617,16.164 C23.819,15.907 24.079,15.719 24.365,15.591 L24.365,11.369 L24.365,11.352 C23.306,11.163 22.372,10.564 21.658,9.690 C20.826,8.663 20.305,7.259 20.305,5.700 C20.305,4.151 20.826,2.738 21.658,1.710 C22.515,0.648 23.726,-0.011 25.080,-0.011 C26.442,-0.011 27.636,0.648 28.509,1.710 L28.534,1.761 C29.358,2.789 29.855,4.176 29.855,5.700 C29.855,7.241 29.333,8.663 28.509,9.690 C27.786,10.564 26.845,11.163 25.803,11.352 L25.803,11.369 L25.803,15.591 C26.089,15.719 26.341,15.907 26.551,16.164 C26.895,16.575 27.114,17.123 27.114,17.740 L27.105,17.826 L27.669,26.885 L27.669,26.919 L27.669,26.919 ZM1.441,15.436 L1.441,15.436 L1.735,15.436 L1.743,15.436 L1.752,15.436 L1.769,15.436 L3.256,15.436 L3.256,15.436 L3.274,15.436 L3.290,15.436 L4.299,15.436 L4.930,14.931 L4.930,7.259 C4.930,5.461 3.736,3.260 2.971,2.052 C2.349,3.182 1.441,5.015 1.441,6.000 L1.441,15.436 L1.441,15.436 ZM4.997,16.687 L4.997,16.687 L4.997,28.100 C4.997,28.580 4.821,29.026 4.501,29.351 L4.484,29.360 C4.173,29.676 3.727,29.882 3.256,29.882 L1.769,29.882 C1.281,29.882 0.852,29.676 0.524,29.360 L0.524,29.351 C0.214,29.026 0.012,28.580 0.012,28.100 L0.012,17.192 L0.012,16.164 L0.012,16.147 L0.012,6.000 C0.012,4.125 2.323,0.340 2.323,0.323 C2.533,-0.011 2.971,-0.106 3.307,0.100 C3.383,0.151 3.459,0.212 3.492,0.289 L3.500,0.289 C3.500,0.306 6.359,4.116 6.359,7.259 L6.359,15.273 C6.359,15.548 6.232,15.770 6.031,15.890 L4.997,16.687 L4.997,16.687 ZM1.441,17.192 L1.441,17.192 L1.441,28.100 C1.441,28.186 1.475,28.272 1.533,28.332 C1.593,28.400 1.676,28.426 1.769,28.426 L3.256,28.426 C3.341,28.426 3.425,28.392 3.492,28.332 C3.542,28.272 3.584,28.186 3.584,28.100 L3.584,17.080 C3.551,17.055 3.526,17.029 3.500,17.003 C3.475,16.969 3.442,16.935 3.383,16.917 C3.349,16.892 3.299,16.883 3.256,16.883 L1.769,16.883 L1.752,16.883 C1.676,16.883 1.593,16.917 1.533,16.986 C1.483,17.029 1.441,17.106 1.441,17.192 L1.441,17.192 L1.441,17.192 ZM15.782,1.744 L15.782,1.744 C15.782,1.333 16.093,1.008 16.488,1.008 C16.883,1.008 17.211,1.333 17.211,1.744 L17.211,8.337 C17.211,8.885 16.976,9.399 16.615,9.776 L16.606,9.776 C16.244,10.136 15.749,10.376 15.193,10.376 L14.555,10.376 L14.538,10.376 L14.538,10.376 L14.521,10.376 L14.260,10.376 C14.269,10.427 14.278,10.461 14.278,10.504 L14.278,15.591 C14.572,15.719 14.824,15.907 15.034,16.164 C15.396,16.575 15.597,17.123 15.597,17.740 L15.597,17.826 L16.152,26.885 L16.152,26.919 C16.152,27.716 15.874,28.443 15.429,28.974 C14.958,29.539 14.302,29.882 13.563,29.882 C12.831,29.882 12.168,29.539 11.697,28.974 C11.251,28.443 10.974,27.716 10.974,26.919 L10.982,26.834 L11.545,17.826 L11.545,17.756 L11.545,17.740 L11.529,17.740 C11.529,17.123 11.747,16.575 12.100,16.164 C12.302,15.907 12.571,15.719 12.848,15.591 L12.848,10.504 C12.848,10.461 12.857,10.427 12.865,10.376 L12.613,10.376 L12.596,10.376 L12.588,10.376 L12.571,10.376 L11.932,10.376 C11.386,10.376 10.889,10.136 10.520,9.776 C10.158,9.408 9.931,8.885 9.931,8.337 L9.931,1.744 C9.931,1.333 10.242,1.008 10.637,1.008 C11.032,1.008 11.360,1.333 11.360,1.744 L11.360,8.337 C11.360,8.492 11.411,8.646 11.529,8.749 C11.612,8.842 11.747,8.903 11.882,8.920 L11.882,1.744 C11.882,1.333 12.193,1.008 12.588,1.008 C12.983,1.008 13.311,1.333 13.311,1.744 L13.311,8.937 L13.824,8.937 L13.824,1.744 C13.824,1.333 14.151,1.008 14.538,1.008 C14.941,1.008 15.244,1.333 15.244,1.744 L15.244,8.920 C15.396,8.903 15.513,8.842 15.606,8.766 L15.606,8.749 C15.715,8.646 15.782,8.492 15.782,8.337 L15.782,1.744 L15.782,1.744 ZM27.417,2.634 L27.417,2.634 C26.811,1.890 25.979,1.436 25.080,1.436 C24.189,1.436 23.356,1.890 22.751,2.634 C22.112,3.405 21.725,4.501 21.725,5.700 C21.725,6.916 22.112,7.995 22.751,8.783 C23.356,9.502 24.189,9.982 25.080,9.982 C25.979,9.982 26.811,9.502 27.417,8.783 C28.038,7.995 28.442,6.916 28.442,5.700 C28.442,4.519 28.056,3.448 27.450,2.669 L27.417,2.634 L27.417,2.634 ZM14.353,28.032 L14.353,28.032 C14.588,27.758 14.740,27.365 14.740,26.919 L14.185,17.885 L14.185,17.826 L14.185,17.792 L14.185,17.740 C14.185,17.483 14.101,17.251 13.967,17.098 C13.857,16.969 13.731,16.892 13.579,16.892 L13.563,16.892 L13.563,16.892 C13.403,16.892 13.269,16.969 13.176,17.098 C13.034,17.251 12.958,17.483 12.958,17.740 L12.958,17.792 L12.958,17.894 L12.394,26.919 C12.394,27.365 12.554,27.758 12.773,28.032 C12.983,28.289 13.260,28.426 13.563,28.426 C13.865,28.426 14.151,28.289 14.353,28.032 L14.353,28.032 ZM12.958,17.792 L12.958,17.792 L12.958,17.834 L12.958,17.792 L12.958,17.792 ZM25.870,28.032 L25.870,28.032 C26.096,27.758 26.256,27.365 26.256,26.919 L25.694,17.885 L25.694,17.826 L25.694,17.792 L25.694,17.740 C25.694,17.483 25.618,17.251 25.484,17.098 C25.374,16.969 25.248,16.892 25.088,16.892 L25.080,16.892 L25.063,16.892 C24.920,16.892 24.794,16.969 24.685,17.098 C24.550,17.251 24.475,17.483 24.475,17.740 L24.475,17.792 C24.475,17.826 24.475,17.860 24.475,17.894 L23.911,26.919 C23.911,27.365 24.054,27.758 24.281,28.032 C24.500,28.289 24.777,28.426 25.080,28.426 C25.382,28.426 25.668,28.289 25.870,28.032 L25.870,28.032 Z" class="cls-1"/>
</svg>
